src/pos-icons/cup-off.svg

<svg height="24" viewBox="0 0 24 24" width="24" xmlns="http://www.w3.org/2000/svg"><path d="m1 4.27 1.28-1.27 18.72 18.72-1.27 1.28-1.46-1.46c-.34.29-.77.46-1.27.46h-10c-1.03 0-1.87-.77-2-1.77l-1.47-13.43zm17.32 3.73.45-4h-12.95l-2-2h17.18l-1.71 15.47-9.47-9.47z"/></svg>

<?xml version="1.0" encoding="UTF-8"?><!DOCTYPE svg PUBLIC "-//W3C//DTD SVG 1.1//EN" "http://www.w3.org/Graphics/SVG/1.1/DTD/svg11.dtd"><svg xmlns="http://www.w3.org/2000/svg" xmlns:xlink="http://www.w3.org/1999/xlink" version="1.1" id="mdi-cup-off" width="24" height="24" viewBox="0 0 24 24"><path d="M1,4.27L2.28,3L21,21.72L19.73,23L18.27,21.54C17.93,21.83 17.5,22 17,22H7C5.97,22 5.13,21.23 5,20.23L3.53,6.8L1,4.27M18.32,8L18.77,4H5.82L3.82,2H21L19.29,17.47L9.82,8H18.32Z" /></svg>
